dist/svg/view.svg

<!-- Generated by Trend Micro Style Portal -->
<svg version="1.1" xmlns="http://www.w3.org/2000/svg" width="16" height="16" viewBox="0 0 16 16">
  <title>view</title>
  <path fill="rgb(34,34,34)" d="M15.837 7.736c-0.119-0.193-2.995-4.736-7.837-4.736s-7.717 4.543-7.837 4.736l-0.163 0.263 0.162 0.263c0.118 0.193 2.969 4.738 7.838 4.738s7.719-4.545 7.838-4.738l0.162-0.263zM8 6c0 0 0 0.001 0 0.001 0 0.553-0.448 1.001-1.001 1.001s-1.001-0.448-1.001-1.001c0-0.553 0.448-1.001 1.001-1.001v0c0 0 0 0 0.001 0 0.552 0 1 0.448 1.001 1v0zM8 12c-3.669 0-6.142-3.070-6.806-3.999 0.908-1.251 2.040-2.28 3.344-3.047l0.051-0.028c-0.371 0.589-0.593 1.305-0.596 2.073v0.001c0 2.212 1.793 4.006 4.006 4.006s4.006-1.793 4.006-4.006v0c-0.003-0.767-0.224-1.481-0.603-2.086l0.010 0.017c1.353 0.796 2.484 1.823 3.372 3.039l0.022 0.031c-0.665 0.93-3.137 3.999-6.806 3.999z"></path>
</svg>

<svg width="16" height="16" viewBox="0 0 16 16" fill="rgb(34, 34, 34)" xmlns="http://www.w3.org/2000/svg"><title>view</title><path d="M15.837 7.736C15.718 7.543 12.842 3 8 3C3.158 3 0.283 7.543 0.163 7.736L0 7.999L0.162 8.262C0.28 8.455 3.131 13 8 13C12.869 13 15.719 8.455 15.838 8.262L16 7.999L15.837 7.736ZM8 6C8 6.553 7.552 7.002 6.999 7.002C6.446 7.002 5.998 6.554 5.998 6.001C5.998 5.448 6.446 5 6.999 5C7.551 5 8 5.448 8.001 6H8ZM8 12C4.331 12 1.858 8.93 1.194 8.001C2.102 6.75 3.234 5.721 4.538 4.954L4.589 4.926C4.218 5.515 3.996 6.231 3.993 6.999C3.993 9.211 5.786 11.006 7.999 11.006C10.212 11.006 12.005 9.213 12.005 7C12.002 6.233 11.781 5.519 11.402 4.914L11.412 4.931C12.765 5.727 13.896 6.754 14.784 7.97L14.806 8.001C14.141 8.931 11.669 12 8 12Z" fill="rgb(34, 34, 34)" fill-opacity="1.00"/></svg>
